packages/assets/static/images/icons/phone.svg

<svg width="24" height="24" viewBox="0 0 24 24" xmlns="http://www.w3.org/2000/svg">
<path d="M13.6634 4.20928C13.7406 3.92115 13.929 3.67543 14.1872 3.52618C14.4455 3.37692 14.7525 3.33634 15.0406 3.41335C16.4951 3.79225 17.8221 4.55228 18.8849 5.61504C19.9476 6.67781 20.7077 8.00485 21.0866 9.45928C21.1282 9.60307 21.1408 9.75372 21.1235 9.90242C21.1062 10.0511 21.0594 10.1949 20.9858 10.3252C20.9123 10.4556 20.8134 10.57 20.6951 10.6617C20.5768 10.7534 20.4413 10.8206 20.2967 10.8592C20.1521 10.8979 20.0012 10.9073 19.8529 10.887C19.7046 10.8666 19.5619 10.8168 19.433 10.7406C19.3042 10.6643 19.1919 10.5631 19.1027 10.4429C19.0135 10.3227 18.9491 10.1859 18.9134 10.0405C18.6341 8.96917 18.0741 7.99167 17.2911 7.20877C16.5082 6.42586 15.5307 5.86586 14.4594 5.58647C14.1712 5.50934 13.9255 5.32093 13.7763 5.06267C13.627 4.80442 13.5864 4.49746 13.6634 4.20928ZM21.8609 17.2105C21.6822 18.5714 21.0141 19.8207 19.9816 20.7251C18.949 21.6295 17.6226 22.127 16.25 22.1249C8.59907 22.1249 2.37501 15.9008 2.37501 8.24991C2.37288 6.87732 2.87046 5.55088 3.77482 4.51834C4.67918 3.48579 5.92848 2.81775 7.28938 2.63897C7.69037 2.59025 8.09638 2.67199 8.44727 2.87209C8.79816 3.07218 9.07526 3.37999 9.23751 3.74991L11.2166 8.16835C11.2187 8.17414 11.2212 8.17978 11.2241 8.18522C11.3457 8.46949 11.3951 8.77942 11.368 9.08742C11.3408 9.39542 11.2379 9.69193 11.0684 9.95053C11.0443 9.98821 11.0177 10.0242 10.9888 10.0583L9.20188 12.1874C9.86376 13.3912 11.1238 14.6399 12.3416 15.3008L14.4331 13.5196C14.4667 13.4915 14.5018 13.4652 14.5381 13.4408C14.7976 13.2667 15.0967 13.1605 15.4079 13.132C15.7192 13.1035 16.0326 13.1536 16.3194 13.2777L16.3363 13.2852L20.75 15.2624C21.1198 15.4248 21.4275 15.7019 21.6276 16.0528C21.8277 16.4036 21.9095 16.8096 21.8609 17.2105ZM19.5819 17.2049L15.6444 15.4415L13.5416 17.2293C13.5085 17.2579 13.4738 17.2845 13.4375 17.309C13.1672 17.4882 12.855 17.5943 12.5315 17.6168C12.2079 17.6393 11.8841 17.5775 11.5916 17.4374C9.76532 16.5562 7.94563 14.7487 7.06251 12.9374C6.92207 12.6462 6.85932 12.3236 6.88034 12.001C6.90137 11.6784 7.00546 11.3667 7.18251 11.0962C7.20695 11.0585 7.23388 11.0224 7.26313 10.9883L9.05938 8.85835L7.29501 4.92085C6.53695 5.0879 5.85882 5.50916 5.37315 6.11471C4.88749 6.72025 4.6235 7.47367 4.62501 8.24991C4.62873 11.3319 5.8547 14.2866 8.034 16.4659C10.2133 18.6452 13.168 19.8712 16.25 19.8749C17.0267 19.8771 17.7808 19.6134 18.3869 19.1276C18.993 18.6419 19.4147 17.9634 19.5819 17.2049ZM13.4028 9.13772C13.8629 9.28273 14.2812 9.53654 14.6223 9.87763C14.9634 10.2187 15.2172 10.637 15.3622 11.0971C15.434 11.3254 15.5767 11.5248 15.7695 11.6664C15.9624 11.808 16.1954 11.8845 16.4347 11.8846C16.5495 11.8845 16.6635 11.8671 16.7731 11.833C17.0566 11.7433 17.2931 11.5451 17.4308 11.2816C17.5685 11.0181 17.5963 10.7107 17.5081 10.4268C17.2544 9.62126 16.8101 8.88883 16.2129 8.29166C15.6158 7.69448 14.8833 7.25018 14.0778 6.99647C13.9361 6.9489 13.7862 6.93007 13.6371 6.94108C13.488 6.95209 13.3425 6.99272 13.2093 7.0606C13.076 7.12848 12.9577 7.22223 12.8611 7.33639C12.7645 7.45055 12.6916 7.58282 12.6468 7.72547C12.6019 7.86811 12.5859 8.01827 12.5998 8.16717C12.6136 8.31606 12.657 8.4607 12.7274 8.59263C12.7978 8.72456 12.8938 8.84113 13.0097 8.93553C13.1257 9.02993 13.2593 9.10026 13.4028 9.14241V9.13772Z"/>
</svg>

<svg viewBox="0 0 24 24" xmlns="http://www.w3.org/2000/svg" aria-hidden="true" fill="currentColor" height="24px" width="24px"><path d="M13.663 4.21a1.125 1.125 0 0 1 1.378-.797 8.45 8.45 0 0 1 6.046 6.046 1.126 1.126 0 1 1-2.174.582 6.23 6.23 0 0 0-4.454-4.455 1.125 1.125 0 0 1-.796-1.377m8.198 13a5.65 5.65 0 0 1-5.611 4.915C8.6 22.125 2.375 15.9 2.375 8.25a5.65 5.65 0 0 1 4.914-5.611 1.88 1.88 0 0 1 1.949 1.11l1.979 4.42.007.016a1.88 1.88 0 0 1-.156 1.766 1 1 0 0 1-.08.107l-1.786 2.13c.662 1.203 1.922 2.452 3.14 3.113l2.091-1.781q.051-.042.105-.08a1.87 1.87 0 0 1 1.781-.162l.017.007 4.414 1.977a1.88 1.88 0 0 1 1.11 1.948m-2.28-.005-3.937-1.763-2.102 1.787a1 1 0 0 1-.104.08 1.88 1.88 0 0 1-1.846.128c-1.827-.88-3.646-2.688-4.53-4.5a1.88 1.88 0 0 1 .12-1.84q.037-.058.081-.109l1.796-2.13-1.764-3.937a3.4 3.4 0 0 0-2.67 3.329A11.64 11.64 0 0 0 16.25 19.875a3.4 3.4 0 0 0 3.332-2.67m-6.178-8.067a3 3 0 0 1 1.96 1.96 1.125 1.125 0 0 0 2.145-.671 5.25 5.25 0 0 0-3.43-3.43 1.125 1.125 0 1 0-.675 2.145z"/></svg>
